presets/CoolCinema.lrtemplate
s = {
	id = "SAMPLE-COOL-CINEMA-001",
	internalName = "CoolCinema",
	title = "Cool Cinema",
	type = "Develop",
	value = {
		settings = {
			Blacks2012 = 20,
			Clarity2012 = 25,
			Contrast2012 = 30,
			Exposure2012 = -0.10,
			GrainAmount = 15,
			GrainSize = 30,
			Highlights2012 = -40,
			HueAdjustmentAqua = 10,
			HueAdjustmentBlue = -5,
			LuminanceAdjustmentAqua = -10,
			LuminanceAdjustmentBlue = -20,
			LuminanceAdjustmentOrange = 15,
			PostCropVignetteAmount = -35,
			PostCropVignetteFeather = 50,
			PostCropVignetteMidpoint = 35,
			Saturation = -15,
			SaturationAdjustmentAqua = -10,
			SaturationAdjustmentOrange = 20,
			Shadows2012 = 30,
			SplitToningHighlightHue = 200,
			SplitToningHighlightSaturation = 15,
			SplitToningShadowHue = 30,
			SplitToningShadowSaturation = 20,
			Temperature = -20,
			Tint = -5,
			ToneCurveName2012 = "Custom",
			ToneCurvePV2012 = {
				0, 10,
				32, 40,
				128, 130,
				224, 210,
				255, 240,
			},
			ToneCurvePV2012Blue = {
				0, 15,
				128, 140,
				255, 245,
			},
			ToneCurvePV2012Green = {
				0, 5,
				255, 250,
			},
			ToneCurvePV2012Red = {
				0, 0,
				128, 120,
				255, 250,
			},
			Vibrance = 10,
			Whites2012 = -15,
			orientation = "AB",
		},
		uuid = "SAMPLE-UUID-COOL-CINEMA",
	},
	version = 0,
}
