presets/WarmVintage.lrtemplate
s = {
	id = "SAMPLE-WARM-VINTAGE-001",
	internalName = "WarmVintage",
	title = "Warm Vintage",
	type = "Develop",
	value = {
		settings = {
			Blacks2012 = 15,
			Clarity2012 = 10,
			Contrast2012 = 20,
			Exposure2012 = 0.15,
			Highlights2012 = -20,
			HueAdjustmentOrange = 5,
			HueAdjustmentYellow = -10,
			LuminanceAdjustmentOrange = 10,
			LuminanceAdjustmentYellow = 15,
			PostCropVignetteAmount = -25,
			PostCropVignetteFeather = 60,
			PostCropVignetteMidpoint = 40,
			Saturation = -10,
			SaturationAdjustmentBlue = -20,
			SaturationAdjustmentGreen = -15,
			Shadows2012 = 25,
			SplitToningHighlightHue = 45,
			SplitToningHighlightSaturation = 30,
			SplitToningShadowHue = 240,
			SplitToningShadowSaturation = 15,
			Temperature = 15,
			Tint = 5,
			ToneCurveName2012 = "Custom",
			ToneCurvePV2012 = {
				0, 0,
				64, 75,
				128, 138,
				192, 200,
				255, 245,
			},
			ToneCurvePV2012Blue = {
				0, 20,
				255, 235,
			},
			ToneCurvePV2012Green = {
				0, 5,
				255, 250,
			},
			ToneCurvePV2012Red = {
				0, 0,
				255, 255,
			},
			Vibrance = 20,
			Whites2012 = -10,
			orientation = "AB",
		},
		uuid = "SAMPLE-UUID-WARM-VINTAGE",
	},
	version = 0,
}
